svg/toy_brick_search_outline.svg

<?xml version="1.0" encoding="UTF-8"?><!DOCTYPE svg PUBLIC "-//W3C//DTD SVG 1.1//EN" "http://www.w3.org/Graphics/SVG/1.1/DTD/svg11.dtd"><svg xmlns="http://www.w3.org/2000/svg" xmlns:xlink="http://www.w3.org/1999/xlink" version="1.1" id="mdi-toy-brick-search-outline" width="24" height="24" viewBox="0 0 24 24"><path d="M19 6V5A2 2 0 0 0 17 3H15A2 2 0 0 0 13 5V6H11V5A2 2 0 0 0 9 3H7A2 2 0 0 0 5 5V6H3V20H11.81A6.59 6.59 0 0 1 10.5 18H5V8H19V9.5A6.59 6.59 0 0 1 21 10.81V6M20.31 17.9A4.5 4.5 0 1 0 18.88 19.32L22 22.39L23.39 21M16.5 18A2.5 2.5 0 1 1 19 15.5A2.5 2.5 0 0 1 16.5 18Z" /></svg>

<svg xmlns="http://www.w3.org/2000/svg" viewBox="0 0 24 24"><path d="M19 6V5a2 2 0 0 0-2-2h-2a2 2 0 0 0-2 2v1h-2V5a2 2 0 0 0-2-2H7a2 2 0 0 0-2 2v1H3v14h8.81a6.6 6.6 0 0 1-1.31-2H5V8h14v1.5a6.6 6.6 0 0 1 2 1.31V6m-.69 11.9a4.5 4.5 0 1 0-1.43 1.42L22 22.39 23.39 21m-6.89-3a2.5 2.5 0 1 1 2.5-2.5 2.5 2.5 0 0 1-2.5 2.5"/></svg>
